X: 10201
Q: "Slow"
M: C
L: 1/8
K: D
d2 |\
c>BAB cdef | g>a f>g {f}e3A | d>efg a>bag | f>g a/g/f/e/ d3e/d/ |
c>BAB cdef | g/b/a/g/ f/a/g/f/ {f}e3E | F2A2 f>edB | A4{Bcd} D2 |]


